SVG_Azure_All/Azure Lighthouse Service Provider.svg

<?xml version="1.0" encoding="UTF-8" standalone="no"?>
<!-- Generated by Microsoft Visio, SVG Export Azure Lighthouse Service Provider.svg Page-1 -->

<svg
   xmlns:dc="http://purl.org/dc/elements/1.1/"
   xmlns:cc="http://creativecommons.org/ns#"
   xmlns:rdf="http://www.w3.org/1999/02/22-rdf-syntax-ns#"
   xmlns:svg="http://www.w3.org/2000/svg"
   xmlns="http://www.w3.org/2000/svg"
   xmlns:sodipodi="http://sodipodi.sourceforge.net/DTD/sodipodi-0.dtd"
   xmlns:inkscape="http://www.inkscape.org/namespaces/inkscape"
   width="0.78774184in"
   height="0.78742719in"
   viewBox="0 0 56.717411 56.694898"
   xml:space="preserve"
   class="st5"
   version="1.1"
   id="svg49"
   sodipodi:docname="Azure Lighthouse Service Provider.svg"
   style="font-size:12px;overflow:visible;color-interpolation-filters:sRGB;fill:none;fill-rule:evenodd;stroke-linecap:square;stroke-miterlimit:3"
   inkscape:version="0.92.5 (2060ec1f9f, 2020-04-08)"><metadata
   id="metadata53"><rdf:RDF><cc:Work
       rdf:about=""><dc:format>image/svg+xml</dc:format><dc:type
         rdf:resource="http://purl.org/dc/dcmitype/StillImage" /></cc:Work></rdf:RDF></metadata><sodipodi:namedview
   pagecolor="#ffffff"
   bordercolor="#666666"
   borderopacity="1"
   objecttolerance="10"
   gridtolerance="10"
   guidetolerance="10"
   inkscape:pageopacity="0"
   inkscape:pageshadow="2"
   inkscape:window-width="640"
   inkscape:window-height="480"
   id="namedview51"
   showgrid="false"
   inkscape:zoom="1.8365233"
   inkscape:cx="37.825894"
   inkscape:cy="18.900351"
   inkscape:window-x="0"
   inkscape:window-y="0"
   inkscape:window-maximized="0"
   inkscape:current-layer="svg49" />
	<style
   type="text/css"
   id="style2">
	<![CDATA[
		.st1 {fill:url(#grad0-5);stroke:none;stroke-linecap:butt;stroke-width:2.52454}
		.st2 {fill:#ffffff;fill-opacity:0.8;stroke:none;stroke-linecap:butt;stroke-width:2.52454}
		.st3 {fill:url(#grad0-11);stroke:none;stroke-linecap:butt;stroke-width:2.52454}
		.st4 {fill:url(#grad0-15);stroke:none;stroke-linecap:butt;stroke-width:2.52454}
		.st5 {fill:none;fill-rule:evenodd;font-size:12px;overflow:visible;stroke-linecap:square;stroke-miterlimit:3}
	]]>
	</style>

	<defs
   id="Patterns_And_Gradients">
		<linearGradient
   id="grad0-5"
   x1="-0.019045381"
   y1="82.715561"
   x2="33.820434"
   y2="82.715561"
   gradientTransform="scale(1.2093281,0.82690547)"
   gradientUnits="userSpaceOnUse">
			<stop
   offset="0.1"
   stop-color="#54aef0"
   stop-opacity="1"
   id="stop4" />
			<stop
   offset="1"
   stop-color="#1988d9"
   stop-opacity="1"
   id="stop6" />
		</linearGradient>
		<linearGradient
   id="grad0-11"
   x1="0"
   y1="71.368145"
   x2="26.190059"
   y2="71.368145"
   gradientTransform="scale(1.0122466,0.98790153)"
   gradientUnits="userSpaceOnUse">
			<stop
   offset="0.1"
   stop-color="#54aef0"
   stop-opacity="1"
   id="stop9" />
			<stop
   offset="1"
   stop-color="#1988d9"
   stop-opacity="1"
   id="stop11" />
		</linearGradient>
		<linearGradient
   id="grad0-15"
   x1="-0.00054819312"
   y1="72.486603"
   x2="25.018206"
   y2="72.486603"
   gradientTransform="scale(1.0116763,0.98845851)"
   gradientUnits="userSpaceOnUse">
			<stop
   offset="0"
   stop-color="#76bc2d"
   stop-opacity="1"
   id="stop14" />
			<stop
   offset="0.6"
   stop-color="#81ce31"
   stop-opacity="1"
   id="stop16" />
			<stop
   offset="0.82"
   stop-color="#86d633"
   stop-opacity="1"
   id="stop18" />
		</linearGradient>
	</defs>
	<g
   id="g47"
   transform="translate(-5.6463451,-5.6693997)">
		<title
   id="title22">Page-1</title>
		<g
   id="group7865-1"
   transform="translate(5.66929,-34.0157)">
			<title
   id="title24">Azure-Lighthouse-Service-Provider</title>
			<g
   id="shape7866-2"
   transform="translate(0,-5.89759)">
				<title
   id="title26">path23</title>
				<path
   d="m 29.73,77.73 a 1.65693,1.61708 0 0 1 1.65,-1.61 H 40.9 A 21.2152,20.705 -180 0 0 23.65,68.41 C 9.1,68.41 1.46,77.32 0,91.88 a 4.19105,4.09026 -180 0 0 3.77,4.5 h 25.99 z"
   class="st1"
   id="path28"
   inkscape:connector-curvature="0"
   style="fill:url(#grad0-5);stroke:none;stroke-width:2.52453995;stroke-linecap:butt" />
			</g>
			<g
   id="shape7867-6"
   transform="translate(16.4718,-14.744)">
				<title
   id="title31">path25</title>
				<path
   d="M 7.18,80.33 A 13.2879,12.9683 0 0 1 0,78.27 l 7.12,18.11 7.05,-18.01 a 12.9955,12.683 0 0 1 -6.99,1.96 z"
   class="st2"
   id="path33"
   inkscape:connector-curvature="0"
   style="fill:#ffffff;fill-opacity:0.8;stroke:none;stroke-width:2.52453995;stroke-linecap:butt" />
			</g>
			<g
   id="shape7868-8"
   transform="translate(10.3964,-30.8196)">
				<title
   id="title36">circle27</title>
				<ellipse
   cx="13.2554"
   cy="83.441299"
   rx="13.2554"
   ry="12.9366"
   class="st3"
   id="ellipse38"
   style="fill:url(#grad0-11);stroke:none;stroke-width:2.52453995;stroke-linecap:butt" />
			</g>
			<g
   id="shape7869-12"
   transform="translate(31.3842)">
				<title
   id="title41">path29</title>
				<path
   d="m 8.87,88.96 h 7.6 v 7.42 H 8.87 Z M 0,79.07 H 7.6 V 71.65 H 1.1 a 1.07213,1.04635 -180 0 0 -1.07,1.04 z m 1.07,17.31 h 6.5 V 88.96 H 0 v 6.34 a 1.07213,1.04635 -180 0 0 1.07,1.08 z M 0,87.72 H 7.6 V 80.37 H 0 Z m 17.71,8.66 h 6.49 a 1.03964,1.01464 -180 0 0 1.04,-1.05 V 88.99 H 17.71 Z M 8.87,87.72 h 7.6 v -7.35 h -7.6 z m 8.84,0 h 7.6 v -7.35 h -7.6 z m 0,-16.07 v 7.42 h 7.6 v -6.35 a 1.03964,1.01464 -180 0 0 -1.04,-1.04 z m -8.84,7.42 h 7.6 v -7.42 h -7.6 z"
   class="st4"
   id="path43"
   inkscape:connector-curvature="0"
   style="fill:url(#grad0-15);stroke:none;stroke-width:2.52453995;stroke-linecap:butt" />
			</g>
		</g>
	</g>
</svg>

<?xml version="1.0" encoding="UTF-8" standalone="no"?>
<!DOCTYPE svg PUBLIC "-//W3C//DTD SVG 1.1//EN" "http://www.w3.org/Graphics/SVG/1.1/DTD/svg11.dtd">
<!-- Generated by Microsoft Visio, SVG Export Azure Lighthouse Service Provider.svg Page-1 -->
<svg xmlns="http://www.w3.org/2000/svg" xmlns:xlink="http://www.w3.org/1999/xlink" xmlns:ev="http://www.w3.org/2001/xml-events"
		width="0.944882in" height="1.33858in" viewBox="0 0 68.0315 96.378" xml:space="preserve" color-interpolation-filters="sRGB"
		class="st5">
	<style type="text/css">
	<![CDATA[
		.st1 {fill:url(#grad0-5);stroke:none;stroke-linecap:butt;stroke-width:2.52454}
		.st2 {fill:#ffffff;fill-opacity:0.8;stroke:none;stroke-linecap:butt;stroke-width:2.52454}
		.st3 {fill:url(#grad0-11);stroke:none;stroke-linecap:butt;stroke-width:2.52454}
		.st4 {fill:url(#grad0-15);stroke:none;stroke-linecap:butt;stroke-width:2.52454}
		.st5 {fill:none;fill-rule:evenodd;font-size:12px;overflow:visible;stroke-linecap:square;stroke-miterlimit:3}
	]]>
	</style>

	<defs id="Patterns_And_Gradients">
		<linearGradient id="grad0-5" x1="0" y1="0" x2="1" y2="0" gradientTransform="rotate(90 0.5 0.5)">
			<stop offset="0.1" stop-color="#54aef0" stop-opacity="1"/>
			<stop offset="1" stop-color="#1988d9" stop-opacity="1"/>
		</linearGradient>
		<linearGradient id="grad0-11" x1="0" y1="0" x2="1" y2="0" gradientTransform="rotate(85.417782300505 0.5 0.5)">
			<stop offset="0.1" stop-color="#54aef0" stop-opacity="1"/>
			<stop offset="1" stop-color="#1988d9" stop-opacity="1"/>
		</linearGradient>
		<linearGradient id="grad0-15" x1="0" y1="0" x2="1" y2="0" gradientTransform="rotate(-90 0.5 0.5)">
			<stop offset="0" stop-color="#76bc2d" stop-opacity="1"/>
			<stop offset="0.6" stop-color="#81ce31" stop-opacity="1"/>
			<stop offset="0.82" stop-color="#86d633" stop-opacity="1"/>
		</linearGradient>
	</defs>
	<g>
		<title>Page-1</title>
		<g id="group7670-1" transform="translate(5.66929,-34.0157)">
			<title>Azure-Lighthouse-Service-Provider</title>
			<g id="shape7671-2" transform="translate(2.79776E-13,-5.89759)">
				<title>path23</title>
				<path d="M29.73 77.73 A1.65693 1.61708 0 0 1 31.38 76.12 L40.9 76.12 A21.2152 20.705 -180 0 0 23.65 68.41 C9.1 68.41
							 1.46 77.32 0 91.88 A4.19105 4.09026 -180 0 0 3.77 96.38 L29.76 96.38 L29.73 77.73 Z" class="st1"/>
			</g>
			<g id="shape7672-6" transform="translate(16.4718,-14.744)">
				<title>path25</title>
				<path d="M7.18 80.33 A13.2879 12.9683 0 0 1 -0 78.27 L7.12 96.38 L14.17 78.37 A12.9955 12.683 0 0 1 7.18 80.33 Z"
						class="st2"/>
			</g>
			<g id="shape7673-8" transform="translate(10.3964,-30.8196)">
				<title>circle27</title>
				<ellipse cx="13.2554" cy="83.4413" rx="13.2554" ry="12.9366" class="st3"/>
			</g>
			<g id="shape7674-12" transform="translate(31.3842,1.42109E-14)">
				<title>path29</title>
				<path d="M8.87 88.96 L16.47 88.96 L16.47 96.38 L8.87 96.38 L8.87 88.96 ZM0 79.07 L7.6 79.07 L7.6 71.65 L1.1 71.65
							 A1.07213 1.04635 -180 0 0 0.03 72.69 L0 79.07 ZM1.07 96.38 L7.57 96.38 L7.57 88.96 L0 88.96 L0 95.3
							 A1.07213 1.04635 -180 0 0 1.07 96.38 ZM0 87.72 L7.6 87.72 L7.6 80.37 L0 80.37 L0 87.72 ZM17.71 96.38
							 L24.2 96.38 A1.03964 1.01464 -180 0 0 25.24 95.33 L25.24 88.99 L17.71 88.99 L17.71 96.38 ZM8.87 87.72
							 L16.47 87.72 L16.47 80.37 L8.87 80.37 L8.87 87.72 ZM17.71 87.72 L25.31 87.72 L25.31 80.37 L17.71 80.37
							 L17.71 87.72 ZM17.71 71.65 L17.71 79.07 L25.31 79.07 L25.31 72.72 A1.03964 1.01464 -180 0 0 24.27 71.68
							 L17.71 71.65 ZM8.87 79.07 L16.47 79.07 L16.47 71.65 L8.87 71.65 L8.87 79.07 Z" class="st4"/>
			</g>
		</g>
	</g>
</svg>
